X:1
T:Title
%%score { ( 1 3 ) | ( 2 4 5 ) }
L:1/8
M:4/4
K:Eb
V:1 treble nm="Grand Piano"
V:3 treble 
V:2 bass 
V:4 bass 
V:5 bass 
V:1
 z4 z2[Q:1/4=100] [GB]>[FA] | G2 F2 E2 [DF]>[DF] | G2 A2 B2 B2 | [Ec]2[K:bass][K:treble] z2 z4 | %4
 [EG]4 [DF]2 [DB]>[DA] | G2 F2 E2 [DF]>F | G2 A2 B2 c2 | d2 cB B2 =A2 | [DB]6 B>B | d2 d2 d2 cB | %10
 e2 B2 B2 B>B | d2 d2 d2 cB | e2 B2 B2 B>A | G2 F2 E2 [DF]2 | [EG]2 [FA]2 [GB]2 [Ec]2 | %15
 z2 .[CA]2 z4 |[M:3/4] [G,E]6 |[M:1/4] z2 |[M:4/4] z2 .D2 z4 | z2 [G,E]F G2 B2 | c2 c>c e2 dc | %21
 c4 B2 [B,GB]>[B,FA] | [B,EG]2 [A,DF]2 [G,E]2 [B,DF]>[B,DF] | [B,EG]2 [B,FA]2 [B,GB]2 [Ec]2 | %24
 [EB]2 [CEA][B,EG] [B,DG]2 [A,DF]2 |[M:3/4] [G,E]6 |] %26
V:2
 z4 z2 [E,B,]>[E,B,] | [E,B,E]2 [E,A,D]2 [E,G,]2 [B,,B,]>[B,,B,] | %2
 [E,B,E]2 [F,B,E]2 [G,B,E]2 [E,G,E]2 | z4 z2 .C2 | [B,,B,]6 [B,,B,]>[B,,B,] | %5
 [E,B,E]2 [E,A,D]2 [E,G,]2 z z/ D/ | [E,B,E]2 [F,B,E]2 [G,B,E]2 [G,B,E]2 | %7
 [F,B,F]2 [F,EF][F,DF] [F,CE]2 [F,CE]2 | [B,,B,]6[K:treble] [B,DF]>[B,DF] | %9
 [B,FA]2 [B,FA]2 [B,FA]2 [B,DA]2 | [B,EG]2 [B,EG]2 [B,EG]2 G>G | [B,FA]2 [B,FA]2 [B,FA]2 [A,DF]2 | %12
 [G,B,E]2 [G,B,E]2 [G,B,E]2 [F,B,D]>[F,B,D] | [E,B,E]2 [E,A,D]2 [E,G,]2 [B,,B,]2 | %14
 [E,B,]2 [E,B,]2 [E,B,]2 [A,,A,]2 | [B,,G,]2 z B, B,,2 B,,2 |[M:3/4] E,6 |[M:1/4][K:treble] B2 | %18
[M:4/4] B6[K:bass][K:treble] z2 | B6[K:bass] z2 | [A,E]2 [A,E]>[A,E] [A,CE]2 [A,E]2 | [E,E]6 z2 | %22
 E,2 E,2 E,2 B,,>B,, | E,2 E,2 E,2 [A,,A,]2 | [B,,G,]2 B,,B,, B,,2 B,,2 |[M:3/4] E,6 |] %26
V:3
 x8 | x8 | x8 | z[K:bass] B,,[K:treble] [Ec]>[Ec] B2 AG | x8 | x8 | x8 | x8 | x8 | x8 | x8 | x8 | %12
 x8 | x8 | x8 | [EB]2 E-[EG] [B,DG]2 [A,DF]2 |[M:3/4] x6 |[M:1/4] x2 | %18
[M:4/4] z2 B,-[B,E] [B,F]2 z2 | x8 | x8 | x8 | x8 | x8 | x8 |[M:3/4] x6 |] %26
V:4
 x8 | x8 | x8 | .[A,,A,]2 [C,A,]>[D,A,] [E,G,E]2 [E,E]-[E,B,E] | x8 | z4 z2 [B,,B,]2 | x8 | x8 | %8
 x6[K:treble] x2 | x8 | z4 z2 [B,E]2 | x8 | x8 | x8 | x8 | z2 B,,2 z4 |[M:3/4] x6 | %17
[M:1/4][K:treble] x2 |[M:4/4] z2[K:bass] B,,C, D,2[K:treble] B2 | %19
 z2[K:bass] z A, [E,B,]2 [G,B,E]2 | x8 | A,4 G,2 B,,>B,, | x8 | x8 | x8 |[M:3/4] x6 |] %26
V:5
 x8 | x8 | x8 | x8 | x8 | x8 | x8 | x8 | x6[K:treble] x2 | x8 | x8 | x8 | x8 | x8 | x8 | x8 | %16
[M:3/4] x6 |[M:1/4][K:treble] x2 |[M:4/4] x2[K:bass] x4[K:treble] x2 | z2[K:bass] E,2 z4 | x8 | %21
 x8 | x8 | x8 | x8 |[M:3/4] x6 |] %26

